packages/icons/src/__generated__/nav/svg/nav-assetHubProduct-12-active.svg

<svg xmlns="http://www.w3.org/2000/svg" fill="#1652F0" viewBox="0 0 12 12"><path d="M5.989 3.495V3.47c0-1.421-1.146-2.474-2.5-2.474a2.514 2.514 0 0 0-2.5 2.526c0 1.421 1.094 2.474 2.5 2.474-1.354 0-2.5 1.146-2.5 2.5a2.5 2.5 0 0 0 5 0 2.5 2.5 0 0 0 5 0c0-1.406-1.094-2.5-2.5-2.5 1.354 0 2.5-1.105 2.5-2.526 0-1.421-1.146-2.474-2.5-2.474a2.514 2.514 0 0 0-2.5 2.5Zm0 0h2.5v2.5a2.5 2.5 0 0 1-2.5-2.5Zm0 0a2.5 2.5 0 0 1-2.5 2.5 2.5 2.5 0 0 1 2.5 2.5 2.5 2.5 0 0 1 2.5-2.5v2.5h-5v-5h2.5Z"/></svg>

<svg xmlns="http://www.w3.org/2000/svg" fill="#1652F0" viewBox="0 0 12 12"><path d="M6 3.5v-.026C6 2.053 4.854 1 3.5 1A2.514 2.514 0 0 0 1 3.526C1 4.947 2.094 6 3.5 6 2.146 6 1 7.146 1 8.5a2.5 2.5 0 0 0 5 0 2.5 2.5 0 0 0 5 0C11 7.094 9.906 6 8.5 6 9.854 6 11 4.895 11 3.474 11 2.053 9.854 1 8.5 1A2.514 2.514 0 0 0 6 3.5Zm0 0h2.5V6A2.5 2.5 0 0 1 6 3.5Zm0 0A2.5 2.5 0 0 1 3.5 6 2.5 2.5 0 0 1 6 8.5 2.5 2.5 0 0 1 8.5 6v2.5h-5v-5H6Z"/></svg>
